**kern	**kern	**kern	**kern
*staff3	*staff4	*staff1	*staff2
*clefF4	*clefF4	*clefG2	*clefG2
*k[f#c#]	*k[f#c#]	*k[f#c#]	*k[f#c#]
*M2/4	*M2/4	*M2/4	*M2/4
*D:	*D:	*D:	*D:
=-	=-	=-	=-
*k[b-]	*k[b-]	*k[b-]	*k[b-]
(8FL 8A	[2D	(4aa	2r
8dJ	.	.	.
8GL 8B-	.	4cc#	.
8dJ)	.	.	.
=201	=201	=201	=201
(8FL 8A	2D_	(4.dd)	2r
8dJ	.	.	.
8F#L 8A	.	.	.
8cJ)	.	8ee-)	.
=202	=202	=202	=202
(8GL	2D_	(8ee-L	2r
8BJ	.	8ddJ)	.
8EL	.	(8ddL	.
8B-J)	.	8cc#J)	.
=203	=203	=203	=203
(8FL	2D]	(4cc#	2r
8B-J	.	.	.
8AL	.	8dd)	.
8FJ)	.	8r	.
=204	=204	=204	=204
(8DL	4D	4ff	2r
8AJ	.	.	.
8DL	(4BB	(4ff	.
8G#J)	.	.	.
=205	=205	=205	=205
(8C#L	4BB-)	4.ee)	2r
8GJ	.	.	.
8C#L	4AA	.	.
8GJ)	.	8ee	.
=206	=206	=206	=206
(8DL	4AA	(8ddL	2r
8FJ	.	8cc#J	.
8DL	4BB-	8ddL	.
8GJ)	.	8eeJ)	.
=207	=207	=207	=207
(4C#	4.AA	4a	2r
8A)	.	4r	.
8r	8r	.	.
=208:|!|:	=208:|!|:	=208:|!	=208:|!|:
*-	*-	*-	*-
